X: 16955
T: Hawthorn Bush, The
R: slip jig
M: 9/8
K: Gmajor
|:g|dBB B^AB G2 e|dBG AB/c/d e2 g|dBB B^AB G2 B|BAG ABd e2:|
|:f|gfg age dBG|g2 g agf e2 d|gfg agf egg|dBG AB/c/d e2:|

